icon-svg/volvo.svg

<svg xmlns="http://www.w3.org/2000/svg" fill="#44739e" viewBox="0 0 24 24"><path d="M16.779 2.874v.266a10.14 10.14 0 0 1 1.62 1.1l-1.354 1.348a8.14 8.14 0 0 1 1.373 1.372l1.352-1.352a10.5 10.5 0 0 1 1.1 1.613h.26V2.874ZM19.817 6.6l-.965.965a8.156 8.156 0 1 1-2.41-2.414l.965-.965a9.507 9.507 0 1 0 2.41 2.414m-3.068 5.291c0 .489.395.879 1.186.879s1.181-.39 1.181-.879-.414-.869-1.186-.869-1.181.386-1.181.869m1.2-.606c.263 0 .4.289.4.61-.006.3-.131.617-.42.611s-.406-.316-.4-.625.151-.601.416-.596zm-9.714.606c0 .489.4.879 1.186.879s1.181-.39 1.181-.879-.414-.869-1.186-.869-1.181.386-1.181.869m1.593 0c0 .3-.131.617-.42.611s-.406-.316-.4-.625.159-.6.424-.6.402.297.396.623zm-3.346-.833H4.816l-.001.255h.382l.775 1.407.897.001.761-1.408h.382v-.255H6.864v.255h.331l-.554 1.025-.562-1.025h.403zm8.007 1.662.896.001.762-1.408h.382v-.255H15.38v.255h.333l-.556 1.025-.562-1.025h.403v-.255h-1.665l-.001.255h.382zm-3.415-.001h2.306v-.769h-.253a.505.505 0 0 1-.545.511h-.355v-1.149h.383v-.255h-1.536v.255h.387v1.149h-.388v.258z"/></svg>

<?xml version="1.0" encoding="UTF-8"?>
<svg width="24px" fill="#44739e" height="24px" viewBox="0 0 24 24" version="1.1" xmlns="http://www.w3.org/2000/svg" xmlns:xlink="http://www.w3.org/1999/xlink">
            <path d="M 16.779,2.874 V 3.14 a 10.143,10.143 0 0 1 1.62,1.1 L 17.045,5.588 A 8.139,8.139 0 0 1 18.418,6.96 L 19.77,5.608 a 10.485,10.485 0 0 1 1.1,1.613 h 0.26 V 2.874 Z M 19.817,6.6 18.852,7.565 a 8.156,8.156 0 1 1 -2.41,-2.414 l 0.965,-0.965 a 9.507,9.507 0 1 0 2.41,2.414 z m -3.068,5.291 c 0,0.489 0.395,0.879 1.186,0.879 0.791,0 1.181,-0.39 1.181,-0.879 0,-0.489 -0.414,-0.869 -1.186,-0.869 -0.772,0 -1.181,0.386 -1.181,0.869 z m 1.2,-0.606 c 0.263,0 0.4,0.289 0.4,0.61 -0.006,0.3 -0.131,0.617 -0.42,0.611 -0.289,-0.006 -0.406,-0.316 -0.4,-0.625 0.006,-0.309 0.151,-0.601 0.416,-0.596 z m -9.714,0.606 c 0,0.489 0.4,0.879 1.186,0.879 0.786,0 1.181,-0.39 1.181,-0.879 0,-0.489 -0.414,-0.869 -1.186,-0.869 -0.772,0 -1.181,0.386 -1.181,0.869 z m 1.593,0 c 0,0.3 -0.131,0.617 -0.42,0.611 -0.289,-0.006 -0.406,-0.316 -0.4,-0.625 0.006,-0.309 0.159,-0.6 0.424,-0.6 0.265,0 0.402,0.297 0.396,0.623 z M 6.482,11.058 H 4.816 L 4.815,11.313 H 5.197 L 5.972,12.72 6.869,12.721 7.63,11.313 H 8.012 V 11.058 H 6.864 v 0.255 H 7.195 L 6.641,12.338 6.079,11.313 h 0.403 z m 8.007,1.662 0.896,10e-4 0.762,-1.408 h 0.382 V 11.058 H 15.38 v 0.255 h 0.333 l -0.556,1.025 -0.562,-1.025 h 0.403 v -0.255 h -1.665 l -10e-4,0.255 h 0.382 z M 11.074,12.719 H 13.38 V 11.95 h -0.253 a 0.505,0.505 0 0 1 -0.545,0.511 h -0.355 v -1.149 h 0.383 v -0.255 h -1.536 v 0.255 h 0.387 v 1.149 h -0.388 v 0.258 z"/>

</svg>
